X:113D
T:Hornpipe
O:No 113 Wm Clarke of Feltwell  MS 1858
N:Key given is G but tune appears to be in D
M:2/2
L:1/8
K:C
"^*"G/2A/2B/2|c2GF ECEG|AFAc BGBd|ecfd gedc|
Bcde fdcB|c2GF ECEG|AFAc BGBd|eagf edcB|c2c2c2:|
|:g/2a/2b/2|c'gec Acfa|gedc cBAG|ffdf dece c|
B2G2G2cB|AFAc fedc|BGBd gfed|eagf edcB|c2c2c2:|

